X:1
T:Sertraneja
T:Sertraneja
T:Trad. Brasil
T:Yves Letort, Marc Legars & Jean-Bernard Chanteux 
C:Yves Letort, Marc Legars & Jean-Bernard Chanteux
%%score 1 ( 2 3 )
L:1/8
Q:1/4=86
M:4/4
K:C
V:1 treble nm="Guitarra clàssica"
V:2 treble nm="Guitarra clàssica"
V:3 treble 
V:1
"^\n" z4 z2"^Mi"!mf! e2 |"^La" a2"^La" a"^Sol"g"^Fa" f2"^Mi" e2 |"^Do" c2"^La" A2 z2"^Do" c2 | %3
"^Mi" e"^Mi" e2"^Re" d"^Si" B2"^Do" c2 |"^La" A4 z2"^Mi"!mf! e2 | %5
"^La" a2"^La" a"^Sol"g"^Fa" f2"^Mi" e2 |"^Do" c2"^La" A2 z2"^Do" c2 | %7
"^Mi" e"^Mi" e2"^Re" d"^Si" B2"^Do" c2 |"^La" A4 z2"^Mi"!f! e2 | %9
"^Re" d2"^Fa" f"^Re"d"^Fa" f2"^Re" d2 |"^Do" c2"^Mi" e"^Do"c"^Mi" e2"^La" A2 | %11
"^Si" B"^Si" B2"^Si" B"^Do" c2"^Re" d2 |"^Mi" e4 z2"^Mi" e2 | %13
"^Re" d2"^Fa" f"^Re"d"^Fa" f2"^Re" d2 |"^Do" c2"^Mi" e"^Do"c"^Mi" e2"^Do" c2 | %15
"^Mi" e"^Re" d2"^Do" c"^Si" B2"^Do" c2 |"^La" A4 z2"^Mi" e2 | %17
"^Re" d2"^Fa" f"^Re"d"^Fa" f2"^Re" d2 |"^Do" c2"^Mi" e"^Do"c"^Mi" e2"^La" A2 | %19
"^Si" B"^Si" B2"^Si" B"^Do" c2"^Re" d2 |"^Mi" e4 z2"^Mi" e2 | %21
"^Re" d2"^Fa" f"^Re"d"^Fa" f2"^Re" d2 |"^Do" c2"^Mi" e"^Do"c"^Mi" e2"^Do" c2 | %23
"^Mi" e"^Re" d2"^Do" c"^Si" B2"^Do" c2 |"^La" A4 z4 |] %25
V:2
 z8 | z [Ac]2 [Ac] C[Ac]E[Ac] | z [Ac]2 [Ac] E[Ac]A,[Ac] | z [^GB]2 [GB] E[GB]E,[GB] | %4
 z [Ac]2 [Ac] E[Ac]C[Ac] | z [Ac]2 [Ac] C[Ac]E[Ac] | z [Ac]2 [Ac] E[Ac]A,[Ac] | %7
 z [^GB]2 [GB] E[GB]E,[GB] | z [Ac]2 [Ac] E[Ac]A,[Ac] | z [Ad]2 [Ad] C[Ad]B,[Ad] | %10
 z [Ac]2 [Ac] G,[Ac]F,[Ac] | z [^Gd]2 [Gd] A,[Gd]B,[Gd] | z [Ac]2 [Ac] E[Ac]A,[Ac] | %13
 z [FA]2 [FA] [Ad]2 [FA]2 | z [Ac]2 [Ac] [ce]2 [Ac]2 | z [^GB]2 [GB] E[GB]E,[GB] | %16
 z [EA]2 [AB] [Ac]2 [A^c]2 | z [Ad]2 [Ad] C[Ad]B,[Ad] | z [Ac]2 [Ac] G,[Ac]F,[Ac] | %19
 z [^Gd]2 [Gd] A,[Gd]B,[Gd] | z [Ac]2 [Ac] E[Ac]A,[Ac] | z [FA]2 [FA] [Ad]2 [FA]2 | %22
 z [Ac]2 [Ac] [ce]2 [Ac]2 | z [^GB]2 [GB] E[GB]E,[GB] | z [EA]2 [EA]- [EA]2 [EA]2 |] %25
V:3
 x8 | A,4 C2 E2 | A,4 E2 A,2 | B,4 E2 E,2 | A,4 E2 C2 | A,4 C2 E2 | A,4 E2 A,2 | B,4 E2 E,2 | %8
 A,4 E2 A,2 | D4 C2 B,2 | A,4 G,2 F,2 | E,4 A,2 B,2 | A,4 E2 A,2 | B,8 | A,8 | E,4 E2 E,2 | A,8 | %17
 D4 C2 B,2 | A,4 G,2 F,2 | E,4 A,2 B,2 | A,4 E2 A,2 | B,8 | A,8 | E,4 E2 E,2 | A,4 A,4 |] %25

